icons/svgs/tag-outline.svg

<svg width="24" height="24" viewBox="0 0 24 24" fill="none" xmlns="http://www.w3.org/2000/svg">
<path d="M10.9453 3.25C11.6094 3.25 12.2344 3.52344 12.7031 3.99219L19.5781 10.8672C20.5547 11.8438 20.5547 13.4453 19.5781 14.4219L14.3828 19.6172C13.4062 20.5938 11.8047 20.5938 10.8281 19.6172L3.95312 12.7422C3.48438 12.2734 3.25 11.6484 3.25 10.9844V5.125C3.25 4.10938 4.07031 3.25 5.125 3.25H10.9453ZM5.125 10.9844C5.125 11.1406 5.16406 11.2969 5.28125 11.4141L12.1562 18.2891C12.3906 18.5234 12.8203 18.5234 13.0547 18.2891L18.25 13.0938C18.5234 12.8594 18.5234 12.4297 18.25 12.1953L11.375 5.32031C11.2578 5.20312 11.1016 5.125 10.9453 5.125H5.125V10.9844ZM7.625 6.375C8.28906 6.375 8.875 6.96094 8.875 7.625C8.875 8.32812 8.28906 8.875 7.625 8.875C6.92188 8.875 6.375 8.32812 6.375 7.625C6.375 6.96094 6.92188 6.375 7.625 6.375Z" fill="black"/>
</svg>

<svg xmlns="http://www.w3.org/2000/svg" width="24" height="24" fill="currentColor" class="icon-tag-outline" viewBox="0 0 24 24">
  <mask id="a" width="18" height="18" x="3" y="3" maskUnits="userSpaceOnUse" style="mask-type:alpha">
    <path d="M10.945 3.25c.664 0 1.29.273 1.758.742l6.875 6.875a2.523 2.523 0 0 1 0 3.555l-5.195 5.195a2.523 2.523 0 0 1-3.555 0l-6.875-6.875c-.469-.469-.703-1.094-.703-1.758V5.125c0-1.016.82-1.875 1.875-1.875zm-5.82 7.734c0 .157.04.313.156.43l6.875 6.875a.66.66 0 0 0 .899 0l5.195-5.195a.595.595 0 0 0 0-.899L11.375 5.32a.63.63 0 0 0-.43-.195h-5.82zm2.5-4.609c.664 0 1.25.586 1.25 1.25 0 .703-.586 1.25-1.25 1.25-.703 0-1.25-.547-1.25-1.25 0-.664.547-1.25 1.25-1.25"/>
  </mask>
  <g mask="url(#a)">
    <path d="M0 0h24v24H0z"/>
  </g>
</svg>
